X: 50
T: Bert Jamieson's Set Tune No.4
S: Bert Jamieson, collected by Rob Willis and John Meredith
A: Upper Murray River district, New South wales, Australia
N: Played for the Lancers
Z: Transcribed into ABC by John Furlonger
S: http://www.mcdonaldstrings.com/tunes.abc
M: 6/8
L: 1/8
K: G Major
R: single jig
|: d |\
B2 B BAB | c2 c cBc | d2 d dcB | A3 d3 |
B2 B BAB | c2 c cBc | d2 d cBA | G3- G2 :|
|: d |\
gfe dBG | c2 d e2 d | gfe dBG | A3- A2 d |
gfe dBG | c2 d ege | d2 d cBA | G3- G2 :|
|: B |\
G2 B BdB | G2 B B2 d | e2 d dBG | A3 ABA |
F2 A ABA | F2 A ABA | d2 d cBA |[1 B3 B2 :|[2 G3 G2 ||
|: B |\
d2 d B2 d | e2 f g3 | b2 a gfe | d3 ded | 
e2 e efe | d2 d ded |[1 A2 A A2 B | A3 A2 d :|[2 A2 A cBA | G3- G2 |]
